!!!!SEGMENT: T789_Mes-w29b5n9p2m18-26.krn
!!!COM: Messiaen, Olivier (Eugène Prosper Charles)
!!!OTL: IX: La Bouscarle (The Warbler)
!!!AGN: Instrumental
!!!AGN-sub: Keyboard
!!!CNT: French
!!!ODT: 1958
!!!OPR: Catalogue d'oiseaux (Birds Catalogue) for Piano
!!!filename: T789_Mes-w29b5n9p2m18-26.krn
**kern	**kern	**dynam
*grp:A	*grp:B	*
*part1	*part1	*
*staff2	*staff1	*staff1/2
*I"Piano	*I"Piano	*
*I'Pno.	*I'Pno.	*
*part1	*part1	*
*staff2	*staff1	*
*clefG2	*clefG2	*
*k[]	*k[]	*
=1	=1	=1
*ped	*	*
!	!LO:TX:a:t=[Un peu vif ([eighth]=138)]	!LO:DY:t=[ %s ]
N(<8qg#X> 8qb#>X 8qcc#>X 8qff#>X/	.	fff
16An~> 16dn 16e-X 16gnN)	8ryy	.
N(<8qg#y>/ 8qb#> 8qcc#> 8qff#>	.	.
16Any~> 16dny 16e-y 16gnyN)	.	.
=2	=2	=2
*Xped	*	*
4r	4r	.
4r	4r	.
4r	4r	.
*clefF4	*	*
=3	=3	=3
*ped	*	*
!LO:TX:b:i:t=(sourdine)	!LO:TX:t=Vif ([eighth]=152)	!LO:DY:t= %s (liquide et fluide)
!	!LO:TX:a:i:t=(l'eau reflète les saules et les peupliers)	!
16r	4cn 4f#X 4bn	pp
[8.BBB-X [8.EEn	.	.
8BBB-L] 8EE]	8dnL 8gn 8dd-X	.
*ped	*	*
[8FFnJ	8AnJ 8e-X 8a-X	.
=4	=4	=4
16FFnX]	4Gn 4B-X 4f#X	.
*ped	*	*
8.CCn 8.AA-X 8.Dn	.	.
*ped	*	*
[4AAn [4En	4Bn 4c#X 4d#X	.
=5	=5	=5
16AAKL] 16E]	8dn 8gn 8cc#X	.
*ped	*clefF4	*
[8.AA-XJ [8.An	.	.
.	4F#X 4Bn 4fn	.
8AA-L] 8A]	.	.
*ped	*	*
[8E-XJ	[8B-X [8cn [8en	.
!!linebreak:original
=6	=6	=6
*^	*	*
16E-]	4ryy	16B-X] 16cnX] 16enX]	.
*ped	*	*clefG2	*
[8.Cn [8.An	.	8.e-X 8.bn 8.ddn	.
*	*	*clefF4	*
8C] 8A]	8ryy	8.Gn 8.d-X 8.fn	.
*ped	*	*	*
16ryy	[8AA-X [>8B-X	.	.
*	*	*clefG2	*
[16F#X	.	[16en [16bn [16ffn/	.
=7	=7	=7	=7
8.F#X]	8AA-X] 8B-X]	8.enX] 8.bnX] 8.ffnX]/	.
*ped	*	*	*
.	4EE-X 4Dn	.	.
16ryy	.	[16cn [16a-X [16dd-X	.
4ryy	.	16cKL] 16a-X] 16dd-X]	.
.	.	8B-X 8gn 8an	.
.	[8Fn [8d-X	.	.
.	.	[16GnJk [16en	.
=8	=8	=8	=8
2ryy	8F] 8d-X]	8.Gn] 8.en]	.
*ped	*	*	*
.	[8BBB-X [8BBn	.	.
*	*	*clefF4	*
.	.	[16F#X [16cn	.
.	8.BBB-] 8.BB]	8.F#] 8.c]	.
*	*	*clefG2	*
.	[16E-X [16An	[16dn [16a-X	.
=9	=9	=9	=9
2ryy	8E-X] 8AnX]	16dnX] 16a-X]	.
.	.	[8.dd-X [8.cccn	.
*ped	*	*	*
.	[8A-X [8B-X [8dn [8fn	.	.
.	16A-] 16B-] 16d] 16f]	16dd-] 16ccc]	.
*ped	*clefG2	*	*
.	[8.en [8.f#X	8ee-X 8ggn	.
.	.	[16an [16bn	.
*v	*v	*	*
=	=	=
*-	*-	*-
!!!system-decoration: [({(s1,s2)})]
!!!RDF**kern: > = above
!!!RDF**kern: < = below
!!!RDF**kern: N = linked
!!!EED: Jason Lee
!!!EEV: 2022/03/22
!!!EED2: Gabriella Vici
!!!Suter_Work_ID: Mes-29
!!!Suter_Example_Number: 789
!!!Suter_Example_ID: Mes-29^5 pièce no 9/2/3 dernières lignes
!!!Premiere_Location: Paris,France
!!!Other_Tsigs: {3/8},{2/4}
!!!Full_Unit_Duration: 11:18
!!!First_Publication_Year: 1964
!!!First_Public_Performance_Year: 1959
!!!Example_Total_Measures: 9
!!!Example_Timestamp_Duration: 16
!!!Example_Start_Tsig_Type: unmetered
!!!Example_Start_Tsig_Mean_Beat_Rate: 138
!!!Example_Start_Tsig_Beat_Rate: 138
!!!Example_Start_Tsig_Beat: {thirty-second}
!!!Example_Start_Tsig: {9/32}
!!!Example_Start_Timestamp: 0:29
!!!Example_Start_Tempo_Expression: [Un peu vif]
!!!Example_Start_Notated_Beat_Rate: [138]
!!!Example_Start_Notated_Beat: [eighth]
!!!Example_Start_Measure: 18
!!!Example_Metadata_Validated: Y
!!!Example_End_Timestamp: 0:45
!!!Example_End_Measure: 26
!!!Example_Dataset: T
!!!Editorial_Comments: Example Start Notated Beat and Example Start Notated Beat Rate [eighth=138] based on most recent notated beat rate (SWFU, m. 17). Example Start Tempo Expression [Un peu vif] based on most recent notated tempo expression (SWFU, m. 17). Editorial Note: Full Unit Start Time Signature {5/16} based on a calculation of the number of sixteenth beats in the first unmetered measure, which subsequently changes. Full Unit Start Tsig Type (none) is used as there are no regular groupings of beats. ^5 = Livre No. 5; individual pieces are numbered continuously from Book 1 to Book 7; this example comprises mm. 18-26  of Number 9 in book 5; link to score: https://www.scribd.com/document/187954587/Messiaen-Catalogue-d-Oiseaux; link to E1: https://drive.google.com/file/d/1M3-mGOJosKG0f_s9a9CusnmfHZmkwcun/view?usp=sharing.
!!!Death_Place: Paris,France
!!!Death_Date: 27-Apr-1992
!!!Changing_Tsig: {yes}
!!!Birth_Place: Avignon,France
!!!Birth_Date: 10-Dec-1908
!!!Audio_Example_Quarter_Note_Tempo:
!!!Audio_Example_Duration:
!!!EEV2: 2022/03/24
